Newaita/actions/16/format-text-strikethrough.svg

<svg height="16" viewBox="0 0 16 16" width="16" xmlns="http://www.w3.org/2000/svg"><g fill="#424242"><path d="m2.8125 7.734375h10.253906c.089844 0 .164063.070313.164063.164063v.332031c0 .089843-.074219.164062-.164063.164062h-10.253906c-.09375 0-.167969-.074219-.167969-.164062v-.332031c0-.09375.074219-.164063.167969-.164063zm0 0"/><path d="m7.9375 2.9375c-1.472656 0-2.753906.597656-3.441406 1.488281l1.101562.6875c.417969-.511719 1.222656-.855469 2.148438-.855469h.382812c1.359375 0 2.457032.738282 2.457032 1.65625v1.15625h1.320312v-1.15625c0-1.648437-1.769531-2.976562-3.96875-2.976562zm-3.707031 6.117188c-.167969.332031-.261719.691406-.261719 1.066406v.328125h.023438c.21875 1.496093 1.894531 2.648437 3.945312 2.648437 1.019531 0 1.945312-.285156 2.648438-.753906v.679688h1.320312v-3.96875h-1.894531c.355469.289062.574219.660156.574219 1.066406 0 .914062-1.097657 1.652344-2.457032 1.652344h-.382812c-1.359375 0-2.453125-.738282-2.453125-1.652344 0-.40625.214843-.777344.574219-1.066406zm0 0"/></g></svg>

<?xml version="1.0" encoding="UTF-8"?>
<svg xmlns="http://www.w3.org/2000/svg" xmlns:xlink="http://www.w3.org/1999/xlink" width="16px" height="16px" viewBox="0 0 16 16" version="1.1">
<g id="surface1">
<path style=" stroke:none;fill-rule:nonzero;fill:rgb(25.882354%,25.882354%,25.882354%);fill-opacity:1;" d="M 2.8125 7.734375 L 13.066406 7.734375 C 13.15625 7.734375 13.230469 7.804688 13.230469 7.898438 L 13.230469 8.230469 C 13.230469 8.320312 13.15625 8.394531 13.066406 8.394531 L 2.8125 8.394531 C 2.71875 8.394531 2.644531 8.320312 2.644531 8.230469 L 2.644531 7.898438 C 2.644531 7.804688 2.71875 7.734375 2.8125 7.734375 Z M 2.8125 7.734375 "/>
<path style=" stroke:none;fill-rule:nonzero;fill:rgb(25.882354%,25.882354%,25.882354%);fill-opacity:1;" d="M 7.9375 2.9375 C 6.464844 2.9375 5.183594 3.535156 4.496094 4.425781 L 5.597656 5.113281 C 6.015625 4.601562 6.820312 4.257812 7.746094 4.257812 L 8.128906 4.257812 C 9.488281 4.257812 10.585938 4.996094 10.585938 5.914062 L 10.585938 7.070312 L 11.90625 7.070312 L 11.90625 5.914062 C 11.90625 4.265625 10.136719 2.9375 7.9375 2.9375 Z M 4.230469 9.054688 C 4.0625 9.386719 3.96875 9.746094 3.96875 10.121094 L 3.96875 10.449219 L 3.992188 10.449219 C 4.210938 11.945312 5.886719 13.097656 7.9375 13.097656 C 8.957031 13.097656 9.882812 12.8125 10.585938 12.34375 L 10.585938 13.023438 L 11.90625 13.023438 L 11.90625 9.054688 L 10.011719 9.054688 C 10.367188 9.34375 10.585938 9.714844 10.585938 10.121094 C 10.585938 11.035156 9.488281 11.773438 8.128906 11.773438 L 7.746094 11.773438 C 6.386719 11.773438 5.292969 11.035156 5.292969 10.121094 C 5.292969 9.714844 5.507812 9.34375 5.867188 9.054688 Z M 4.230469 9.054688 "/>
</g>
</svg>
